!!!OTL: Die Koenigskinder Det voro tva aedla konungabarn,
!!!ARE: Nordeuropa, Sverige
!!!YOR: 1, S. 217
!!    1814 gedruckt
!!!SCT: Q2020I
!!!YEM: Copyright 1995, estate of Helmut Schaffrath.
**kern
*ICvox
*Ivox
*M6/8
*k[b-e-]
*g:
{8g
=1
8a
8b-
8g
8a
8b-
8g
=2
8a
8b-
8cc
4dd}
{8cc
=3
8b-
8a
8b-
8g
8a
8b-
=4
4.g
4r}
{8dd
=5
8dd
8ee-
8dd
8cc
8b-
8a
=6
4.b-
4a}
{8a
=7
4g
8g
8d
8e
8f#
=8
4g
4.r}
==
!!!AGN: Ballade, Liebe, Trennung, Tod
!! Die"Elslein"-Melodie wird in direkten Zusammenhang zur Balladengruppe
!!    gestellt.
!!!ONB: ESAC (Essen Associative Code) Database: BALLADE
!!!AMT: compound duple
!!!AIN: vox
!!!EED: Helmut Schaffrath
!!!EEV: 1.0
*-
